cursors/Breeze_Light/src/svg/pencil.svg

<svg id="svg11024" height="32" width="32" xmlns="http://www.w3.org/2000/svg" xmlns:xlink="http://www.w3.org/1999/xlink">
  <filter id="filter7078" color-interpolation-filters="sRGB">
    <feGaussianBlur id="feGaussianBlur7080" stdDeviation=".657"/>
  </filter>
  <path id="path7428" d="m2.844 30.976c-.557-.098-.95-.74-.781-1.28l1.062-3.188c.04-.15.116-.29.219-.407l12.594-12.625a1 1 0 0 1 .593-.28c.305-.043.626.064.844.28l2.125 2.125c.384.372.384 1.066 0 1.438l-12.594 12.625a1 1 0 0 1 -.406.219l-3.187 1.062a1 1 0 0 1 -.47.031" filter="url(#filter7078)" opacity=".2"/>
  <path id="path4801-6-4-9" d="m16.531 12.2a1 1 0 0 0 -.593.282l-12.594 12.625a1 1 0 0 0 -.219.406l-1.062 3.187a1 1 0 0 0 1.25 1.25l3.187-1.062a1 1 0 0 0 .406-.219l12.594-12.625a1 1 0 0 0 0-1.437l-2.125-2.125a1 1 0 0 0 -.844-.282" opacity=".6"/>
  <path id="path4801-6-4" d="m16.656 13.2-12.593 12.625-1.063 3.188 3.188-1.063 12.592-12.625zm.031 1.438.688.687-1.313 1.313-.687-.688z" fill="#fff"/>
  <path id="hotspot" d="m29-4h1v1h-1z" display="none" fill="#333" stroke-width="1.07568" transform="rotate(90)"/>
</svg>

<svg xmlns="http://www.w3.org/2000/svg" xmlns:xlink="http://www.w3.org/1999/xlink" xml:space="preserve" id="svg11024" width="32" height="32">
    <defs>
        <filter id="filter7078" color-interpolation-filters="sRGB">
            <feGaussianBlur id="feGaussianBlur7080" stdDeviation=".657"/>
        </filter>
    </defs>
    <path id="path7428" d="M2.844 30.976c-.557-.098-.95-.74-.781-1.28l1.062-3.188c.04-.15.116-.29.219-.407l12.594-12.625a1 1 0 0 1 .593-.28c.305-.043.626.064.844.28l2.125 2.125c.384.372.384 1.066 0 1.438L6.906 29.664a1 1 0 0 1-.406.219l-3.187 1.062a1 1 0 0 1-.47.031" style="color:#000;font-style:normal;font-variant:normal;font-weight:400;font-stretch:normal;font-size:medium;line-height:normal;font-family:Sans;-inkscape-font-specification:Sans;text-indent:0;text-align:start;text-decoration:none;text-decoration-line:none;letter-spacing:normal;word-spacing:normal;text-transform:none;writing-mode:lr-tb;direction:ltr;baseline-shift:baseline;text-anchor:start;display:inline;overflow:visible;visibility:visible;opacity:.2;fill:#000;fill-opacity:1;fill-rule:nonzero;stroke:none;stroke-width:2;marker:none;filter:url(#filter7078);enable-background:accumulate"/>
    <path id="path4801-6-4-9" d="M16.531 12.2a1 1 0 0 0-.593.282L3.344 25.107a1 1 0 0 0-.219.406L2.063 28.7a1 1 0 0 0 1.25 1.25L6.5 28.888a1 1 0 0 0 .406-.219L19.5 16.044a1 1 0 0 0 0-1.437l-2.125-2.125a1 1 0 0 0-.844-.282" style="color:#000;font-style:normal;font-variant:normal;font-weight:400;font-stretch:normal;font-size:medium;line-height:normal;font-family:Sans;-inkscape-font-specification:Sans;text-indent:0;text-align:start;text-decoration:none;text-decoration-line:none;letter-spacing:normal;word-spacing:normal;text-transform:none;writing-mode:lr-tb;direction:ltr;baseline-shift:baseline;text-anchor:start;display:inline;overflow:visible;visibility:visible;opacity:.6;fill:#000;fill-opacity:1;fill-rule:nonzero;stroke:none;stroke-width:2;marker:none;enable-background:accumulate"/>
    <path id="path4801-6-4" d="M16.656 13.2 4.063 25.825 3 29.013l3.188-1.063L18.78 15.325zm.031 1.438.688.687-1.313 1.313-.687-.688z" style="fill:#fff;fill-opacity:1;stroke:none"/>
    <path id="hotspot" d="M29-4h1v1h-1z" style="display:none;fill:#333;stroke-width:1.07568" transform="rotate(90)"/>
</svg>
